!!!!SEGMENT: pl-wtm--r-2114--002_wysocki-kasper-napoleon--piano-piece-n-2.krn
!!!cenid: 18xx:4360
!!!COM: Wysocki, Kasper Napoleon
!!!COM-rismID: pe41024789
!!!CDT: 1810/12/06-1850/09/21
!!!CNT: Polish
!!!GTL: [Piano piece]
!!!OTL: N. 2.
!!!OMV: 002
!!!PDT:
!!!AGN: Secular
!!!SMS-siglum: PL-Wtm
!!!SMS-shelfmark: R 2114
!!!SMS-shelfwork: 001-002 G
!!!SMS-variant:
!!!SMS-altvar:
!!!NIFC-rismSourceID: 1001130432
!!!NIFC-rismChildID: 1001130436
!!!NIFC-islandoraID: pl-wtm:29820
!!!URL-pdf-islandora: https://repozytorium.nifc.pl/islandora/object/pl-wtm:29820/datastream/PDF/view
!!!URL-scan: https://polish.musicsources.pl/pl/lokalizacje/galeria/rekopisy/6548/3 @EN{Scan on Polish Music Sources Website} @PL{Skany w portalu Dziedzictwo Muzyki Polskiej w otwartym dostępie}
!!!ONB-nifc: UWAGA: skan 3.
!!!AIN: 2 piano
!!!key: F
**kern	**kern
*part2	*part1
*staff2	*staff1
*I"fortepian	*I"fortepian
*I'[pf]	*I'[pf]
*>A	*>A
*ICklav	*ICklav
*Ipiano	*Ipiano
*clefF4	*clefG2
*k[b-]	*k[b-]
*F:	*F:
*M3/4	*M3/4
=1	=1
!!LO:TX:t=P:problem: all \ left or right	!
4FF:\ 4C: 4A:	4c:/ 4f: 4a:
4FF:\ 4C: 4A:	4c:/ 4f: 4a:
4FF:\ 4C: 4A:	4c:/ 4f: 4a:
=2	=2
*	*^
4CC/ 4C	8.a/L	4B-\ 4e
.	16g/Jk	.
4CC/ 4C	8.a/L	4B-\ 4e
.	16g/Jk	.
4FF/ 4F	4A/ 4f	4ryy
=3	=3	=3
4FF:\ 4C: 4A:	4c:/ 4f: 4cc:	2ryy
4FF:\ 4C: 4A:	4c:/ 4f: 4cc:	.
4AA:\ 4C: 4F: 4A:	8cc:/L 8c: 8f:	4ryy
.	8cc#X/J	.
=4	=4	=4
4BB-\ 4B-	8.ee/L	4f\ 4b-
.	16dd/Jk	.
4BB-\ 4B-	8.ee/L	4f\ 4b-
.	16dd/Jk	.
4BB-\ 4B-	4e/ 4g	4ryy
*	*v	*v
=5	=5
4FF:\ 4C: 4A:	4c:/ 4f: 4a:
4FF:\ 4C: 4A:	4c:/ 4f: 4a:
4DD:/ 4AA: 4F#X:	4c:/ 4f#X: 4a:
!!LO:PB:g=original	!
=6	=6
*	*^
8GG:\L 8D: 8B-:	8d:/L 8g: 8b-:	2ryy
8GG:\ 8D: 8B-:	8d:/ 8g: 8a:	.
8GG:\ 8D: 8B-:	8d:/ 8g: 8b-:	.
8GG:\J 8D: 8B-:	8d:/J 8g: 8b-: 8ee:	.
*	*	*Xtuplet
!	!LO:TUP:a:problem:klamra łukowa	!
8.BB-\L 8.D 8.G	12dd/L	12d\ 12g
!	!	!LO:N:vis=16
.	12.b-/J	12.r
16BB-\Jk 16D 16G	.	.
.	24g/	24d\
=7	=7	=7
8C\ 8F 8A	8c/ 8f 8a	2ryy
8r	16r	.
.	16c/ 16f 16cc	.
4CC/ 4C	4c/ 4f 4cc	.
4CC/ 4C	8.g/L	4B-\ 4e
.	16a/Jk	.
*	*v	*v
=8	=8
.	8qg/
*^	*
2.F/	8.FF\L	8.A/L 8.f
.	16FF\Jk	16G/Jk 16e
!LO:N:vis=8.	!	!
.	8FF\L	2A/ 2f
.	8FF\J	.
.	4FF\	.
*v	*v	*
=9:|!	=9:|!
*tremolo	*
*2\right	*
*	*^
!	!LO:TX:a:t=ten	!LO:N:vis=4
8D\L 8F 8A 8d	8.a/L	8.f\
8D\ 8F 8A 8d	.	.
!	!	!LO:N:vis=4
.	16g#X/K	16e\
!	!	!LO:N:vis=4
8D\ 8F 8A 8d	8a/J	8f\
8D\ 8F 8A 8d	8f\L 8a 8ff	4.ryy
8D\ 8F 8A 8d	8f\ 8a 8ee	.
8D\J 8F 8A 8d	8f\J 8a 8dd	.
*	*v	*v
*Xtremolo	*
!!LO:LB:g=original	!
=10	=10
8D\L 8G 8B- 8e	8.g\L 8.b- 8.dd
8D\ 8G 8B- 8e	.
.	16g\K 16b- 16cc#X
8D\ 8G 8B- 8e	8g\ 8b- 8cc#
8D\ 8G 8B- 8d	8g\J 8b- 8dd
8D\ 8G 8B- 8c#X	4g\ 4b- 4cc# 4ee
8D\J 8G 8B- 8c#	.
=11	=11
*tremolo	*
!	!LO:TX:b:t=ten
8AAA\L 8AA	8.G</L 8.B-<
8AAA\ 8AA	.
.	16G</K 16A<
!	!LO:TX:b:t=ten
8AAA\ 8AA	8.G</ 8.B-<
8AAA\ 8AA	.
.	16G</K 16A<
8AAA\ 8AA	8G</ 8c#X<
8AAA\J 8AA	8G</J 8A< 8e<
*Xtremolo	*
=12	=12
*tremolo	*
8DD\L 8D	8.F</L 8.A< 8.d<
8DD\ 8D	.
.	16F</K 16A< 16c#X<
8DD\ 8D	8F</ 8A< 8d<
8DD\ 8D	8F</J 8A< 8e<
8DD\ 8D	4F</ 4A< 4f
8DD\J 8D	.
*Xtremolo	*
=13	=13
*tremolo	*
!	!LO:TX:a:t=ten
8D\L 8F 8A 8d	8.f\L 8.a
8D\ 8F 8A 8d	.
.	16e#X\K 16g#X
8D\ 8F 8A 8d	8f\ 8a
8D\ 8F 8A 8d	8f\ 8a 8ff
8D\ 8F 8A 8d	8f\ 8a 8ee
8D\J 8F 8A 8d	8f\J 8a 8dd
*Xtremolo	*
!!LO:LB:g=original	!
=14	=14
*tremolo	*
8E\L 8G 8c	8e\L 8g 8dd
8E\ 8G 8c	8e\ 8g 8cc
8E\ 8G 8c	8e\ 8g 8cc
8E\ 8G 8c	8e\ 8g 8bn
8E\ 8G 8c	8e\ 8g 8cc
8E\J 8G 8c	8e\J 8g 8b-X
*Xtremolo	*
=15	=15
*	*^
8F\L 8A 8c	8f\L 8a	2ryy
8F\ 8A 8c	8f:\ 8a: 8ff:	.
8F\J 8A 8c	8f:\ 8a: 8cc:	.
8FF/ 8F	8c:\J 8f: 8a:	.
8CC/L 8C	8.a/L	4B-\ 4e
8CC/J 8C	.	.
.	16g/Jk	.
*	*v	*v
=16	=16
!	!LO:N:vis=8
.	8qg/
*^	*
2.F/	8.FF\L	8.A/L 8.f
.	16FF\Jk	16G/Jk 16e
.	8.FF\L	2A/ 2f
.	16FF\Jk	.
.	4FF\	.
*v	*v	*
==17	==17
4FF::\ 4C:: 4A::	4c::/ 4f:: 4a::
4FF::\ 4C:: 4A::	4c::/ 4f:: 4a::
4FF::\ 4C:: 4A::	4c::/ 4f:: 4a::
!!LO:LB:g=original	!
=18	=18
*	*^
4CC/ 4C	8.a/L	4B-\ 4e
.	16g/Jk	.
4CC/ 4C	8.a/L	4B-\ 4e
.	16g/Jk	.
4FF/ 4F	4A/ 4f	4ryy
=19	=19	=19
4FF::\ 4C:: 4A::	4c::/ 4f:: 4cc::	2ryy
4FF::\ 4C:: 4A::	4c::/ 4f:: 4cc::	.
4FF::\ 4AA:: 4C:: 4F:: 4A::	8cc::/L	4c::\ 4f::
.	8cc#X/J	.
=20	=20	=20
4BB-\ 4B-	8.ee/L	4f\ 4b-
.	16dd/Jk	.
4BB-\ 4B-	8.ee/L	4f\ 4b-
.	16dd/Jk	.
4BB-\ 4B-	4e/ 4g	4ryy
*	*v	*v
=21	=21
4FF\ 4C 4A	4c/ 4f 4a
4FF\ 4C 4A	4c/ 4f 4a
4DD\ 4AA 4F#X 4B-	4c/ 4f#X 4a
!!LO:LB:g=original	!
=22	=22
8GG::\L 8D:: 8B-::	8d::/L 8g:: 8b-::
8GG::\ 8D:: 8B-::	8d::/ 8g:: 8a::
8GG::\ 8D:: 8B-::	8d::/ 8g:: 8b-::
8GG::\J 8D:: 8B-::	8d::/J 8g:: 8b-:: 8ee::
*	*tuplet
!	!LO:TUP:a:problem:klamra łukowa
8.BB-\L 8.D 8.G	12dd/L
.	12.b-/J
16BB-\Jk 16D 16G	.
.	24g/
=23	=23
*	*^
8C\ 8F 8A	8c/ 8f 8a	2c/yy
8r	16r	.
.	16c/ 16f 16cc	.
4CC/ 4C	4c:/ 4f: 4cc:	.
4CC/ 4C	4B-:\ 4e:	8dd:/L
.	.	8cc/J
*	*v	*v
=24	=24
*>A1	*>A1
!	!LO:TX:a:t=1 ma volta
.	8qg/
*^	*
2F/	8.FF\L	8.A/L 8.f
.	16FF\Jk	16G/Jk 16e
.	8.FF\L	2A/ 2f
.	16FF\Jk	.
4ryy	4FF\	.
=25:|!	=25:|!	=25:|!
*>A2	*>A2	*>A2
!	!	!LO:TX:a:t=2 volta
.	.	8qg/
2F/	8.FF\L	8.A/L 8.f
.	16FF\Jk	16G/Jk 16e
.	8FF/L	8A/L 8f
.	8BB-/	8B-/ 8d
4ryy	8BB-/	8B-/ 8d
.	8C/J	8G/J 8e
=26	=26	=26
*>B	*>B	*>B
.	.	8qg/
2F/	8.FF\L	8.A/L 8.f
.	16FF\Jk	16G/Jk 16e
.	8FF/L	8A/L 8f
.	8BB-/	8B-/ 8d
4ryy	8BB-/	8B-/ 8d
.	8C/J	8G/J 8e
*v	*v	*
!!LO:LB:g=original	!
=27	=27
8.FF/L 8.F	8.A/L 8.c 8.f
16FF/K 16F	16A/K 16c 16f
8.CC/ 8.C	8.A/ 8.c 8.f
16CC/K 16C	16A/K 16c 16f
8.AAA/ 8.AA	8.A/ 8.c 8.f
16AAA/Jk 16AA	16A/Jk 16c 16f
=28	=28
2.FF;/	2.A;/ 2.c 2.f
==	==
*-	*-
!!!system-decoration: {(s1,s2)}
!!!RDF**kern: > = above
!!!RDF**kern: < = below
!!!ENC: Filip Voros
!!!END: 2023-07-11
!!!ENC: Jan Barakat
!!!END: 2023-07-20
!!!YEC: Copyright 2022 Narodowy Instytut Fryderyka Chopina (https://polishscores.org)
!!!YEM: License CC-BY-4.0 (https://creativecommons.org/licenses/by/4.0)
